Simply-Green-Circles/scalable/apps/gpick.svg

<?xml version="1.0" encoding="UTF-8" standalone="no"?>
<svg
   xmlns:dc="http://purl.org/dc/elements/1.1/"
   xmlns:cc="http://creativecommons.org/ns#"
   xmlns:rdf="http://www.w3.org/1999/02/22-rdf-syntax-ns#"
   xmlns:svg="http://www.w3.org/2000/svg"
   xmlns="http://www.w3.org/2000/svg"
   xmlns:sodipodi="http://sodipodi.sourceforge.net/DTD/sodipodi-0.dtd"
   xmlns:inkscape="http://www.inkscape.org/namespaces/inkscape"
   width="48"
   height="48"
   viewBox="0 0 12.7 12.7"
   version="1.1"
   id="svg4"
   sodipodi:docname="gpick.svg"
   inkscape:version="0.92.4 (5da689c313, 2019-01-14)">
  <metadata
     id="metadata10">
    <rdf:RDF>
      <cc:Work
         rdf:about="">
        <dc:format>image/svg+xml</dc:format>
        <dc:type
           rdf:resource="http://purl.org/dc/dcmitype/StillImage" />
        <dc:title></dc:title>
      </cc:Work>
    </rdf:RDF>
  </metadata>
  <defs
     id="defs8" />
  <sodipodi:namedview
     pagecolor="#ffffff"
     bordercolor="#666666"
     borderopacity="1"
     objecttolerance="10"
     gridtolerance="10"
     guidetolerance="10"
     inkscape:pageopacity="0"
     inkscape:pageshadow="2"
     inkscape:window-width="1087"
     inkscape:window-height="480"
     id="namedview6"
     showgrid="false"
     inkscape:zoom="4.9166667"
     inkscape:cx="2.1355932"
     inkscape:cy="24"
     inkscape:window-x="0"
     inkscape:window-y="25"
     inkscape:window-maximized="0"
     inkscape:current-layer="svg4" />
  <path
     d="M 6.34,0.07 A 6.29,6.29 0 0 0 0.05,6.37 6.29,6.29 0 0 0 6.35,12.65 6.29,6.29 0 0 0 12.63,6.36 6.29,6.29 0 0 0 6.34,0.07 Z M 6.32,1 6.33,1.01 a 5.4,5.4 0 0 1 5.4,5.4 5.4,5.4 0 0 1 -5.4,5.41 A 5.4,5.4 0 0 1 0.92,6.42 5.4,5.4 0 0 1 6.32,1 Z M 8.944,2.813 A 0.94,0.94 0 0 0 8.278,3.089 L 8.023,3.343 A 0.35037159,0.35037159 0 0 0 7.528,3.839 L 7.611,3.921 4.862,6.67 3.908,7.624 A 0.43,0.43 0 0 0 3.782,7.909 L 3.78,7.959 V 7.96 L 3.741,8.823 a 0.143,0.143 0 0 0 0.143,0.15 H 3.891 L 4.348,8.952 4.628,8.94 4.754,8.934 A 0.564,0.564 0 0 0 5.126,8.769 L 8.793,5.103 8.861,5.172 a 0.349,0.349 0 0 0 0.496,0 0.35,0.35 0 0 0 0,-0.495 L 9.611,4.422 A 0.943,0.943 0 0 0 8.944,2.813 Z M 7.776,4.416 8.298,4.938 6.963,6.274 5.675,6.516 l 2.1,-2.1 z m -3.981,4.85 c -0.543,0 -0.982,0.138 -0.982,0.31 0,0.172 0.44,0.31 0.982,0.31 0.542,0 0.981,-0.138 0.981,-0.31 0,-0.172 -0.44,-0.31 -0.981,-0.31 z"
     id="path2"
     inkscape:connector-curvature="0"
     style="fill:#2ca02c" />
</svg>

<svg xmlns="http://www.w3.org/2000/svg" width="48" height="48" viewBox="0 0 12.7 12.7"><path d="M6.34.07a6.29 6.29 0 0 0-6.29 6.3 6.29 6.29 0 0 0 6.3 6.28 6.29 6.29 0 0 0 6.28-6.29A6.29 6.29 0 0 0 6.34.07zM6.32 1l.01.01a5.4 5.4 0 0 1 5.4 5.4 5.4 5.4 0 0 1-5.4 5.41 5.4 5.4 0 0 1-5.41-5.4A5.4 5.4 0 0 1 6.32 1zm2.62 1.81a.94.94 0 0 0-.66.28l-.26.25a.35.35 0 0 0-.5.5l.1.08-2.76 2.75-.95.95a.43.43 0 0 0-.13.29v.05l-.04.86a.14.14 0 0 0 .14.15h.01l.46-.02.28-.01h.12a.56.56 0 0 0 .38-.17L8.79 5.1l.07.07a.35.35 0 0 0 .5 0 .35.35 0 0 0 0-.5l.25-.25a.94.94 0 0 0-.67-1.6zm-1.16 1.6l.52.53-1.34 1.33-1.28.25 2.1-2.1zM3.79 9.28c-.54 0-.98.13-.98.3s.44.32.98.32.99-.14.99-.31-.44-.31-.99-.31z" fill="#2ca02c"/></svg>
